X:323
T: McDonnell's Hornpipe
N: O'Farrell's Pocket Companion v.4 (Sky ed. p.142)
N: "Irish"
M: C
R: hornpipe
L: 1/8
Q: 320
K: D
AG| FA D2 D3d| ceA2 A3g| fgab gfed| efed cBAG|
FA D2 D3d| ceA2 A3g| fgab fedc| d4 d2 :|
zA| d3e dAFA| BGFG BGFG| egba gfed| c2A2A2 GF|
G2b2 b3c'| F2a2 a3b| gfed fedc| d2d2d2 :|
ze| f3g faBd| gfge fdBc| dBfe dcB^A| B2F2F2 de|
f3g faBd| gfge fdBc| dBfe dcB^A|1 B2 B>B B2 :|
[2 Bdce dBAG ||
